X:15122
T:Scottish  Virmoux
M:2/4
L:1/16
K:G
BdcB d3B|cBcd e2d2|dgdB c2BA|BdBG A4|\
BdcB d3B|cBcd e2d2|dgdB c2BA|GdBd G4:|
|:g2d2 g3f|edef gage|d2G2 d2cB|ABcd edef|\
g2d2 g3f|edef gage|d2G2 d2cB|ABcd G4:|
